icons/op-help-24.svg

<svg width="24" height="24" viewBox="0 0 24 24" fill="none" xmlns="http://www.w3.org/2000/svg">
<path d="M8 5.53726C8.20974 5.31765 8.4794 5.12941 8.74906 4.94118C9.04869 4.75294 9.34831 4.59608 9.6779 4.43922C9.97753 4.31373 10.3371 4.18824 10.7266 4.12549C11.1161 4.03137 11.5056 4 11.9551 4C12.5543 4 13.1236 4.09412 13.603 4.25098C14.1124 4.43922 14.5318 4.65882 14.8914 4.97255C15.2509 5.28627 15.5206 5.69412 15.7004 6.13333C15.9101 6.57255 16 7.07451 16 7.63922C16 8.17255 15.9401 8.67451 15.7603 9.08235C15.6105 9.4902 15.4307 9.83529 15.191 10.1176C14.9513 10.4314 14.6816 10.6824 14.412 10.902C14.1124 11.1216 13.8727 11.3098 13.603 11.5294C13.3633 11.7176 13.1536 11.9059 12.9738 12.0627C12.824 12.251 12.7341 12.4706 12.7041 12.7216L12.4644 14.3216H10.7266L10.5468 12.5333V12.3451C10.5468 12 10.6067 11.749 10.7566 11.498C10.9064 11.2784 11.1161 11.0588 11.3258 10.8392C11.5655 10.6196 11.8052 10.4314 12.0749 10.2431C12.3146 10.0235 12.5543 9.83529 12.794 9.58431C13.0037 9.36471 13.1835 9.11373 13.3333 8.83137C13.4831 8.51765 13.5431 8.17255 13.5431 7.79608C13.5431 7.51373 13.5131 7.29412 13.4232 7.07451C13.3034 6.88627 13.1835 6.69804 13.0337 6.54118C12.8839 6.38431 12.6742 6.2902 12.4644 6.19608C12.2247 6.13333 11.985 6.10196 11.7154 6.10196C11.3258 6.10196 10.9963 6.13333 10.7266 6.22745C10.4569 6.32157 10.2172 6.41569 10.0375 6.5098C9.82772 6.63529 9.6779 6.72941 9.55805 6.82353C9.40824 6.91765 9.28839 6.98039 9.1985 6.98039C8.9588 6.98039 8.77903 6.8549 8.65918 6.63529L8 5.53726ZM10.1573 18.3686C10.1573 18.149 10.2172 17.9294 10.2772 17.7412C10.3371 17.5216 10.427 17.3647 10.5468 17.2078C10.6667 17.0824 10.8165 16.9569 10.9963 16.8627C11.1461 16.7686 11.3258 16.7373 11.5056 16.7373C11.7154 16.7373 11.9251 16.7686 12.1049 16.8627C12.2846 16.9569 12.4345 17.0824 12.5843 17.2078C12.7041 17.3647 12.824 17.5216 12.9139 17.7412C12.9738 17.9294 13.0337 18.149 13.0337 18.3686C13.0337 18.6196 12.9738 18.8392 12.9139 19.0275C12.824 19.2157 12.7041 19.4039 12.5843 19.5294C12.4345 19.6863 12.2846 19.8118 12.1049 19.8745C11.9251 19.9686 11.7154 20 11.5056 20C11.3258 20 11.1461 19.9686 10.9963 19.8745C10.8165 19.8118 10.6667 19.6863 10.5468 19.5294C10.427 19.4039 10.3371 19.2157 10.2772 19.0275C10.2172 18.8392 10.1573 18.6196 10.1573 18.3686Z" fill="black"/>
</svg>

<svg xmlns="http://www.w3.org/2000/svg" width="24" height="24" viewBox="0 0 24 24"><path d="M8 5.537c.21-.219.479-.408.749-.596.3-.188.599-.345.929-.502.3-.125.659-.251 1.049-.314A5.113 5.113 0 0 1 11.955 4c.599 0 1.169.094 1.648.251.509.188.929.408 1.288.722.36.313.63.721.809 1.16.21.44.3.942.3 1.506 0 .534-.06 1.036-.24 1.443-.149.408-.329.753-.569 1.036-.24.313-.509.564-.779.784-.3.22-.539.408-.809.627-.24.189-.449.377-.629.534-.15.188-.24.408-.27.659l-.24 1.6h-1.737l-.18-1.789v-.188c0-.345.06-.596.21-.847.149-.22.359-.439.569-.659a7.12 7.12 0 0 1 .749-.596c.24-.219.479-.408.719-.659.21-.219.39-.47.539-.753.15-.313.21-.658.21-1.035 0-.282-.03-.502-.12-.721-.12-.189-.239-.377-.389-.534-.15-.157-.36-.251-.57-.345a2.873 2.873 0 0 0-.749-.094c-.389 0-.719.031-.988.125-.27.095-.51.189-.69.283a4.552 4.552 0 0 0-.479.314c-.15.094-.27.156-.36.156-.239 0-.419-.125-.539-.345L8 5.537Zm2.157 12.832c0-.22.06-.44.12-.628.06-.219.15-.376.27-.533.12-.126.269-.251.449-.345a.953.953 0 0 1 .51-.126c.209 0 .419.032.599.126s.329.219.479.345c.12.157.24.314.33.533.06.188.12.408.12.628 0 .251-.06.47-.12.658-.09.189-.21.377-.33.502-.15.157-.299.283-.479.346-.18.094-.39.125-.599.125a.952.952 0 0 1-.51-.125.985.985 0 0 1-.449-.346 1.316 1.316 0 0 1-.27-.502 2.127 2.127 0 0 1-.12-.658Z"/></svg>
